images/class_icons/elementalist.svg

<svg height="400" viewBox="0 0 400 400" width="400" xmlns="http://www.w3.org/2000/svg"><path d="m13.638 26.878c-10.938.094-10.503.054-11.533 1.048-1.564 1.51-1.769 3.099-.682 5.279 1.679 3.365 91.023 158.283 92.179 159.834 1.086 1.456 4.283 1.821 5.657.645 1.293-1.106.18.777 28.214-47.765 58.012-100.453 65.473-113.524 65.473-114.699 0-1.725-1.05-3.554-2.351-4.097-.725-.302-146.729-.504-176.957-.245m195.357.277c-1.678 1.051-2.233 1.989-2.318 3.916l-.057 1.31 5.679 9.843c76.334 132.277 86.348 149.513 87.78 151.081 1.403 1.537 4.014 1.563 5.463.054.988-1.029 90.575-155.803 92.594-159.97 1.277-2.636.662-4.91-1.697-6.263l-.671-.385-93.054-.001-93.054-.002zm-10.675 43.465c-1.479.842-.392-.946-18.206 29.951-22.087 38.309-43.19 75.167-44.274 77.326-.807 1.608-.708 2.507.387 3.548.719.682-1.745.655 63.628.71l61.931.053.66-.644c1.166-1.139 1.308-1.827.658-3.197-2.389-5.037-60.242-105.414-61.739-107.119-.871-.992-1.998-1.225-3.045-.628m-92.442 134.899c-1.584.899-2.431 2.204-2.524 3.893-.086 1.571-2.08-2.049 19.494 35.398 50.38 87.45 72.62 125.689 73.913 127.089 1.217 1.318 3.96 1.309 5.366-.017 1.526-1.437 90.66-155.903 93.002-161.167.77-1.732-.168-4.132-1.989-5.09-.804-.422-5.105-.443-95.29-.446l-91.367-.003z" fill-rule="evenodd"/></svg>

<svg id="svg" xmlns="http://www.w3.org/2000/svg" xmlns:xlink="http://www.w3.org/1999/xlink" width="400" height="400" viewBox="0, 0, 400,400"><g id="svgg"><path id="path0" d="M13.638 26.878 C 2.700 26.972,3.135 26.932,2.105 27.926 C 0.541 29.436,0.336 31.025,1.423 33.205 C 3.102 36.570,92.446 191.488,93.602 193.039 C 94.688 194.495,97.885 194.860,99.259 193.684 C 100.552 192.578,99.439 194.461,127.473 145.919 C 185.485 45.466,192.946 32.395,192.946 31.220 C 192.946 29.495,191.896 27.666,190.595 27.123 C 189.870 26.821,43.866 26.619,13.638 26.878 M208.995 27.155 C 207.317 28.206,206.762 29.144,206.677 31.071 L 206.620 32.381 212.299 42.224 C 288.633 174.501,298.647 191.737,300.079 193.305 C 301.482 194.842,304.093 194.868,305.542 193.359 C 306.530 192.330,396.117 37.556,398.136 33.389 C 399.413 30.753,398.798 28.479,396.439 27.126 L 395.768 26.741 302.714 26.740 L 209.660 26.738 208.995 27.155 M198.320 70.620 C 196.841 71.462,197.928 69.674,180.114 100.571 C 158.027 138.880,136.924 175.738,135.840 177.897 C 135.033 179.505,135.132 180.404,136.227 181.445 C 136.946 182.127,134.482 182.100,199.855 182.155 L 261.786 182.208 262.446 181.564 C 263.612 180.425,263.754 179.737,263.104 178.367 C 260.715 173.330,202.862 72.953,201.365 71.248 C 200.494 70.256,199.367 70.023,198.320 70.620 M105.878 205.519 C 104.294 206.418,103.447 207.723,103.354 209.412 C 103.268 210.983,101.274 207.363,122.848 244.810 C 173.228 332.260,195.468 370.499,196.761 371.899 C 197.978 373.217,200.721 373.208,202.127 371.882 C 203.653 370.445,292.787 215.979,295.129 210.715 C 295.899 208.983,294.961 206.583,293.140 205.625 C 292.336 205.203,288.035 205.182,197.850 205.179 L 106.483 205.176 105.878 205.519 " stroke="none" fill="#000000" fill-rule="evenodd"></path></g></svg>
